X: 1738
T: Apple Blossom, The
R: reel
M: 4/4
K: Emixolydian
E2BA GABc|Beec dBAF|DEFA dA~A2|defe dBAF|
E2BA GABc|Beec dBAF|DEFA dBAF|DFGD EDB,D||
E2BA G3A|Bdef dBAF|DEFA dA~A2|defe dBAF|
E2BA G3A|Bdef dBAF|DEFA dBAF|DFGD E4||
~e2ge fe~e2|edBe dBAF|DEFA dA~A2|defe dBA2|
Bege f2~e2|edBe dBAF|DEFA dBAF|DFGD E4||
~e2ge fe~e2|edBe dBAF|DEFA dA~A2|defe dBA2|
Bege bage|agef edBc|defe dBAF|DEFA =GEFD||E4||

